actions/symbolic/starred-symbolic.svg

<svg viewBox="0 0 16 16" xmlns="http://www.w3.org/2000/svg"><path d="m14 6.71276c0-.1779171-.134544-.28848-.403986-.3317571l-3.6200314-.5264058-1.6225832-3.28128c-.0912598-.1971257-.2091629-.2956457-.3533552-.2956457-.1441922 0-.2620068.09852-.3533551.2956457l-1.6226718 3.28128-3.6202082.5264058c-.2691766.0432771-.4038091.15384-.4038091.3317571 0 .1009886.060102.21642.1803067.3461829l2.6250249 2.5528801-.6201418 3.605786c-.00965.06737-.014428.115508-.014428.144274 0 .100997.025227.18624.075681.25608.050454.06977.126135.104537.2271315.104537.086569 0 .1826967-.02871.2884731-.08648l3.2379084-1.702072 3.2381742 1.702072c.101085.05769.197213.08648.288385.08648.09639 0 .169596-.03471.22005-.104537.05037-.06977.07559-.155083.07559-.25608 0-.06249-.0024-.110554-.0073-.144274l-.62023-3.605786 2.617767-2.5528801c.125175-.1249886.187579-.2404115.187579-.3461829z" fill="#bebebe"/></svg>

<?xml version="1.0" encoding="UTF-8" standalone="no"?>
<svg
   xmlns:dc="http://purl.org/dc/elements/1.1/"
   xmlns:cc="http://creativecommons.org/ns#"
   xmlns:rdf="http://www.w3.org/1999/02/22-rdf-syntax-ns#"
   xmlns:svg="http://www.w3.org/2000/svg"
   xmlns="http://www.w3.org/2000/svg"
   xmlns:sodipodi="http://sodipodi.sourceforge.net/DTD/sodipodi-0.dtd"
   xmlns:inkscape="http://www.inkscape.org/namespaces/inkscape"
   viewBox="0 0 16 16"
   id="svg2"
   version="1.1"
   inkscape:version="0.91 r13725"
   sodipodi:docname="starred-symbolic.svg">
  <metadata
     id="metadata10">
    <rdf:RDF>
      <cc:Work
         rdf:about="">
        <dc:format>image/svg+xml</dc:format>
        <dc:type
           rdf:resource="http://purl.org/dc/dcmitype/StillImage" />
      </cc:Work>
    </rdf:RDF>
  </metadata>
  <sodipodi:namedview
     pagecolor="#ffffff"
     bordercolor="#666666"
     borderopacity="1"
     objecttolerance="10"
     gridtolerance="10"
     guidetolerance="10"
     inkscape:pageopacity="0"
     inkscape:pageshadow="2"
     inkscape:window-width="640"
     inkscape:window-height="480"
     id="namedview8"
     showgrid="false"
     inkscape:zoom="41.1875"
     inkscape:cx="3.6783005"
     inkscape:cy="8"
     inkscape:current-layer="svg2" />
  <defs
     id="defs3051">
    <style
       type="text/css"
       id="current-color-scheme">
      .ColorScheme-Text {
        color:#bebebe;
      }
      </style>
  </defs>
  <path
     style="color:#bebebe;fill:currentColor;fill-opacity:1;stroke:none"
     class="ColorScheme-Text"
     d="M 14,6.71276 C 14,6.5348429 13.865456,6.42428 13.596014,6.3810029 L 9.9759826,5.8545971 8.3533994,2.5733171 C 8.2621396,2.3761914 8.1442365,2.2776714 8.0000442,2.2776714 c -0.1441922,0 -0.2620068,0.09852 -0.3533551,0.2956457 L 6.0240173,5.8545971 2.4038091,6.3810029 C 2.1346325,6.42428 2,6.5348429 2,6.71276 2,6.8137486 2.060102,6.92918 2.1803067,7.0589429 L 4.8053316,9.611823 4.1851898,13.217609 c -0.00965,0.06737 -0.014428,0.115508 -0.014428,0.144274 0,0.100997 0.025227,0.18624 0.075681,0.25608 0.050454,0.06977 0.126135,0.104537 0.2271315,0.104537 0.086569,0 0.1826967,-0.02871 0.2884731,-0.08648 L 7.9999558,11.933948 11.23813,13.63602 c 0.101085,0.05769 0.197213,0.08648 0.288385,0.08648 0.09639,0 0.169596,-0.03471 0.22005,-0.104537 0.05037,-0.06977 0.07559,-0.155083 0.07559,-0.25608 0,-0.06249 -0.0024,-0.110554 -0.0073,-0.144274 L 11.194625,9.611823 13.812392,7.0589429 C 13.937567,6.9339543 13.999971,6.8185314 13.999971,6.71276 l 0,0 z"
     id="path6"
     inkscape:connector-curvature="0" />
</svg>
